app/_includes/svgs/client-logos/archive/14islands.min.svg

<svg xmlns="http://www.w3.org/2000/svg" viewBox="0 0 892.2 305.2" enable-background="new 0 0 892.2 305.2"><path fill="#fff" d="M387 201.5h-14.6l.1-86.2h-12v-14.6h26.6l-.1 100.8z"/><path fill="#fff" d="M470.6 230.6h-14.6v-29.2h-57l.1-15.5 41.3-85.2h14.6l-41.1 86.2h42v-57h14.6v57h11.9v14.6h-11.9v29.1z"/><path fill="#fff" d="M505.7 201.5h-11.9v-100.8h11.9v100.8zm0-115.4h-11.9v-11.9h11.9v11.9z"/><path fill="#fff" d="M547.6 203c-14.8 0-30.7-9-30.7-28.8v-3.2h11.9v2c0 13.7 9.7 18.6 18.7 18.6 12.3 0 18.5-5.9 18.5-17.5 0-10.7-5.6-16.7-19.4-20.7-12.8-3.2-27.5-9.3-27.5-27.4 0-16.7 10.8-26.6 29-26.6 7.6 0 14.5 2.3 19.5 6.6 5.8 5 8.9 12.6 8.9 21.9v3.3h-11.9v-3.3c0-4-1.2-17-16.4-17-11 0-16.6 4.9-16.6 14.6.3 11.4 10.6 14.5 17.5 16.5l1.1.3c19.3 5.1 28.3 15.1 28.3 31.3.1 18.7-11.2 29.4-30.9 29.4z"/><path fill="#fff" d="M601.2 201.5h-11.9v-140.6h11.9v140.6z"/><path fill="#fff" d="M642.7 203c-18.1 0-29-13.2-29-35.4v-33.1c0-31.7 20.2-35.1 29-35.1 10.1 0 18.1 4.4 22.7 12.6l1.4-11.3h9.2v100.8h-9.2l-1.4-11.3c-5.7 10.5-15.4 12.8-22.7 12.8zm2.5-92.1c-13 0-19.6 9.7-19.6 28.9v22.5c0 19.4 6.6 29.2 19.6 29.2 5.1 0 9.1-1.4 12-4.4 4.5-4.5 6.8-12.9 6.8-24.8v-22.5c.1-12.4-1.8-28.9-18.8-28.9z"/><path fill="#fff" d="M748.3 201.5h-11.9v-60.3c0-27.1-10.4-30.3-18.3-30.3-12.3 0-18.9 9.5-18.9 27.6v63h-11.9v-100.8h9.2l1.5 11.8c4.7-8.5 12.7-13.1 22.9-13.1 18.2 0 27.4 11.4 27.4 33.8v68.3z"/><path fill="#fff" d="M787.7 203c-8.4 0-28.1-3.4-28.1-35.4v-33.1c0-10.6 2.7-35.1 28.1-35.1 9.1 0 16.4 4 21 11.3v-49.8h11.9v140.5h-8.9l-1-11.3c-4.8 8.4-12.8 12.9-23 12.9zm2.8-92.1c-8.7 0-19 5.2-19 30.3v21.2c0 19.7 6.3 29.2 19 29.2 4.9 0 8.7-1.4 11.5-4.2 4.5-4.5 6.6-12.7 6.6-25.1v-21.2c0-20.9-5.6-30.2-18.1-30.2z"/><path fill="#fff" d="M861.2 203c-14.8 0-30.7-9-30.7-28.8v-3.2h11.9v2c0 13.7 9.7 18.6 18.7 18.6 12.3 0 18.5-5.9 18.5-17.5 0-10.7-5.6-16.7-19.4-20.7-12.8-3.2-27.5-9.3-27.5-27.4 0-16.7 10.8-26.6 29-26.6 7.6 0 14.5 2.3 19.5 6.6 5.8 5 8.9 12.6 8.9 21.9v3.3h-11.9v-3.3c0-4-1.2-17-16.4-17-11 0-16.6 4.9-16.6 14.6.3 11.4 10.6 14.5 17.5 16.5l1.1.3c19.3 5.1 28.3 15.1 28.3 31.3.1 18.7-11.2 29.4-30.9 29.4z"/><circle fill="#fff" cx="152.6" cy="152.6" r="152.6"/><g opacity=".4"><path fill="#B7D02E" d="M122.4 204l53 52.5 31.7-10.2 11.1-10.4 6.8 14.5 21.7-20 6.9-4.2 6.2-22.2z"/><path fill="#B7D02E" d="M103.4 204l-1.4 4-9.6 10.6-7.7-6.3v9.9l-11.9 4.2-23.7-22.4z"/><path fill="#83AA08" d="M49.1 204h-2.1l5 10h7.7z"/><path fill="#83AA08" d="M84.7 222.2v-9.9l7.7 6.2-1.9 2.4z"/><path fill="#83AA08" d="M122.4 204h-4.1l9.9 28.2 18.8-3.8z"/><path fill="#83AA08" d="M207.1 246.2l11.1-10.4 6.8 14.6z"/></g><g><path fill="#B7D02E" d="M122.4 202l53-53.2 31.7 9.8 11.1 10.3 6.8-14.7 21.7 20 6.9 4.9 6.2 22.9z"/><path fill="#B7D02E" d="M103.4 202l-1.4-4.7-9.6-10.9-7.7 5.8v-9.8l-11.9-3.5-23.7 23.1z"/><path fill="#83AA08" d="M49.1 202h-2.1l5-10h7.5z"/><path fill="#83AA08" d="M84.7 182.4v9.8l7.7-6-1.9-2.6z"/><path fill="#83AA08" d="M122.4 202h-4.1l9.9-28.8 18.8 4.1z"/><path fill="#83AA08" d="M207.1 158.3l11.1 10.4 6.8-14.6z"/></g></svg>

<svg xmlns="http://www.w3.org/2000/svg" viewBox="0 0 892.2 305.2" enable-background="new 0 0 892.2 305.2"><path fill="#fff" d="M387,201.5h-14.6l0.1-86.2h-12v-14.6h26.6L387,201.5z"/><path fill="#fff" d="M470.6,230.6H456v-29.2h-57l0.1-15.5l41.3-85.2H455l-41.1,86.2h42v-57h14.6v57h11.9v14.6h-11.9V230.6z"/><path fill="#fff" d="M505.7,201.5h-11.9V100.7h11.9V201.5z M505.7,86.1h-11.9V74.2h11.9V86.1z"/><path fill="#fff" d="M547.6,203c-14.8,0-30.7-9-30.7-28.8V171h11.9v2c0,13.7,9.7,18.6,18.7,18.6c12.3,0,18.5-5.9,18.5-17.5 c0-10.7-5.6-16.7-19.4-20.7c-12.8-3.2-27.5-9.3-27.5-27.4c0-16.7,10.8-26.6,29-26.6c7.6,0,14.5,2.3,19.5,6.6 c5.8,5,8.9,12.6,8.9,21.9v3.3h-11.9v-3.3c0-4-1.2-17-16.4-17c-11,0-16.6,4.9-16.6,14.6c0.3,11.4,10.6,14.5,17.5,16.5l1.1,0.3 c19.3,5.1,28.3,15.1,28.3,31.3C578.6,192.3,567.3,203,547.6,203z"/><path fill="#fff" d="M601.2,201.5h-11.9V60.9h11.9V201.5z"/><path fill="#fff" d="M642.7,203c-18.1,0-29-13.2-29-35.4v-33.1c0-31.7,20.2-35.1,29-35.1c10.1,0,18.1,4.4,22.7,12.6l1.4-11.3 h9.2l0,100.8l-9.2,0l-1.4-11.3C659.7,200.7,650,203,642.7,203z M645.2,110.9c-13,0-19.6,9.7-19.6,28.9v22.5 c0,19.4,6.6,29.2,19.6,29.2c5.1,0,9.1-1.4,12-4.4c4.5-4.5,6.8-12.9,6.8-24.8v-22.5C664.1,127.4,662.2,110.9,645.2,110.9z"/><path fill="#fff" d="M748.3,201.5h-11.9v-60.3c0-27.1-10.4-30.3-18.3-30.3c-12.3,0-18.9,9.5-18.9,27.6v63h-11.9V100.7h9.2 l1.5,11.8c4.7-8.5,12.7-13.1,22.9-13.1c18.2,0,27.4,11.4,27.4,33.8V201.5z"/><path fill="#fff" d="M787.7,203c-8.4,0-28.1-3.4-28.1-35.4v-33.1c0-10.6,2.7-35.1,28.1-35.1c9.1,0,16.4,4,21,11.3V60.9h11.9 v140.5h-8.9l-1-11.3C805.9,198.5,797.9,203,787.7,203z M790.5,110.9c-8.7,0-19,5.2-19,30.3v21.2c0,19.7,6.3,29.2,19,29.2 c4.9,0,8.7-1.4,11.5-4.2c4.5-4.5,6.6-12.7,6.6-25.1v-21.2C808.6,120.2,803,110.9,790.5,110.9z"/><path fill="#fff" d="M861.2,203c-14.8,0-30.7-9-30.7-28.8V171h11.9v2c0,13.7,9.7,18.6,18.7,18.6c12.3,0,18.5-5.9,18.5-17.5 c0-10.7-5.6-16.7-19.4-20.7c-12.8-3.2-27.5-9.3-27.5-27.4c0-16.7,10.8-26.6,29-26.6c7.6,0,14.5,2.3,19.5,6.6 c5.8,5,8.9,12.6,8.9,21.9v3.3h-11.9v-3.3c0-4-1.2-17-16.4-17c-11,0-16.6,4.9-16.6,14.6c0.3,11.4,10.6,14.5,17.5,16.5l1.1,0.3 c19.3,5.1,28.3,15.1,28.3,31.3C892.2,192.3,880.9,203,861.2,203z"/><circle fill="#fff" cx="152.6" cy="152.6" r="152.6"/><g opacity=".4"><path fill="#B7D02E" d="M122.4 204L175.4 256.5 207.1 246.3 218.2 235.9 225 250.4 246.7 230.4 253.6 226.2 259.8 204z"/><path fill="#B7D02E" d="M103.4 204L102 208 92.4 218.6 84.7 212.3 84.7 222.2 72.8 226.4 49.1 204z"/><path fill="#83AA08" d="M49.1 204L47 204 52 214 59.7 214z"/><path fill="#83AA08" d="M84.7 222.2L84.7 212.3 92.4 218.5 90.5 220.9z"/><path fill="#83AA08" d="M122.4 204L118.3 204 128.2 232.2 147 228.4z"/><path fill="#83AA08" d="M207.1 246.2L218.2 235.8 225 250.4z"/></g><g><path fill="#B7D02E" d="M122.4 202L175.4 148.8 207.1 158.6 218.2 168.9 225 154.2 246.7 174.2 253.6 179.1 259.8 202z"/><path fill="#B7D02E" d="M103.4 202L102 197.3 92.4 186.4 84.7 192.2 84.7 182.4 72.8 178.9 49.1 202z"/><path fill="#83AA08" d="M49.1 202L47 202 52 192 59.5 192z"/><path fill="#83AA08" d="M84.7 182.4L84.7 192.2 92.4 186.2 90.5 183.6z"/><path fill="#83AA08" d="M122.4 202L118.3 202 128.2 173.2 147 177.3z"/><path fill="#83AA08" d="M207.1 158.3L218.2 168.7 225 154.1z"/></g></svg>
